P2
642 574
255
0 127542
49 1
75 1
112 1
0 635
34 1
68 1
106 1
203 1
244 1
245 1
255 1
199 1
72 1
0 629
20 1
63 1
94 1
176 1
248 1
241 1
255 7
42 1
0 627
32 1
255 1
240 1
255 11
102 1
0 627
159 1
255 13
135 1
0 626
18 1
199 1
255 13
207 1
0 627
139 1
255 14
60 1
0 626
32 1
255 14
112 1
0 626
25 1
211 1
255 13
150 1
0 626
9 1
199 1
255 13
230 1
0 627
116 1
255 14
76 1
0 626
16 1
241 1
255 12
253 1
112 1
0 626
24 1
205 1
255 13
167 1
0 627
181 1
255 14
22 1
0 626
96 1
255 14
143 1
12 1
0 622
29 2
104 1
223 1
255 15
65 1
0 612
9 1
0 5
22 1
37 1
77 1
181 1
215 1
234 1
255 17
156 1
0 608
6 1
0 1
35 1
126 1
174 1
167 1
40 1
37 1
53 1
157 1
215 1
228 1
255 21
192 1
16 1
0 604
8 1
0 1
100 1
167 1
191 1
255 5
219 1
255 25
227 1
0 604
153 1
185 1
236 1
255 35
223 1
96 1
0 1
18 1
14 1
90 1
0 3
36 1
56 1
96 1
0 7
6 1
0 581
38 1
84 1
124 1
255 40
191 1
195 1
227 1
255 1
191 1
94 1
193 1
231 1
239 1
255 1
191 1
64 1
0 1
6 1
0 1
52 1
131 1
171 1
191 1
64 1
0 575
20 1
80 1
109 1
180 1
255 1
249 1
255 53
159 1
164 1
201 1
255 5
159 1
16 1
0 570
64 1
93 1
153 1
248 1
255 1
254 1
255 64
234 1
0 567
49 1
94 1
135 1
221 1
255 1
250 1
255 69
108 1
0 564
80 1
197 1
255 1
251 1
255 73
183 1
7 1
0 563
207 1
255 76
199 1
16 1
0 562
120 1
255 78
239 1
28 1
0 560
24 1
247 1
255 78
237 1
60 1
0 560
151 1
255 80
100 1
0 559
54 1
255 81
193 1
0 559
17 1
213 1
255 80
237 1
39 1
0 557
27 1
56 1
255 81
191 1
0 558
223 1
228 1
255 81
64 1
0 557
128 1
255 83
96 1
0 556
32 1
255 84
64 1
0 556
159 1
255 83
159 1
0 556
72 1
255 84
164 1
6 1
0 555
199 1
255 84
159 1
0 555
104 1
255 85
109 1
0 553
7 1
8 1
231 1
255 85
159 1
0 553
167 1
203 1
255 86
32 1
0 552
80 1
255 87
128 1
0 553
207 1
255 86
215 1
0 553
112 1
255 87
88 1
0 552
16 1
239 1
255 87
114 1
0 551
74 1
143 1
255 88
88 1
0 550
88 1
255 89
183 1
0 551
215 1
255 89
180 1
11 1
0 549
120 1
255 90
183 1
0 547
36 1
56 1
111 1
247 1
255 90
56 1
0 543
23 1
52 1
87 1
183 1
230 1
237 1
255 91
226 1
40 1
0 541
48 1
155 1
233 1
232 1
255 96
56 1
0 541
175 1
255 98
151 1
0 541
55 1
255 98
239 1
24 1
0 542
200 1
255 97
210 1
28 1
0 542
138 1
255 97
239 1
24 1
0 542
104 1
255 97
112 1
0 543
48 1
255 96
207 1
0 543
136 1
188 1
255 69
243 1
229 1
216 1
255 24
80 1
0 541
80 1
116 1
255 65
250 1
191 1
247 1
230 1
232 1
128 1
46 1
41 1
131 1
255 23
178 1
0 541
56 1
255 1
253 1
255 62
207 1
171 1
120 1
29 1
5 1
32 1
50 1
14 1
0 3
39 1
246 1
255 22
229 1
30 1
0 540
183 1
255 62
201 1
56 1
0 1
8 1
0 9
34 1
217 1
255 22
175 1
0 541
130 1
255 63
60 1
0 11
3 1
202 1
255 22
48 1
0 541
97 1
255 62
183 1
0 13
8 1
135 1
255 20
143 1
0 541
74 1
124 1
255 59
239 1
248 1
176 1
56 1
0 15
40 1
211 1
255 17
231 1
16 1
0 541
215 1
255 60
118 1
34 1
0 17
9 1
199 1
255 17
104 1
0 537
1 1
0 1
18 1
95 1
132 1
255 61
212 1
0 19
116 1
255 16
199 1
0 537
73 1
127 1
165 1
243 1
255 63
244 1
52 1
0 18
16 1
241 1
255 15
152 1
0 535
104 1
221 1
255 67
207 1
0 19
24 1
205 1
255 15
199 1
0 534
16 1
231 1
255 68
80 1
0 20
181 1
255 15
72 1
0 534
67 1
250 1
255 65
251 1
196 1
170 1
0 21
93 1
255 14
214 1
6 1
0 534
9 1
233 1
255 62
206 1
176 1
118 1
22 1
9 1
4 1
0 21
21 1
226 1
255 14
65 1
0 535
137 1
255 59
180 1
137 1
49 1
6 1
9 1
0 25
21 1
199 1
255 13
167 1
0 535
16 1
231 1
255 59
178 1
10 1
0 29
155 1
255 13
40 1
0 535
143 1
255 60
207 1
0 30
56 1
255 12
128 1
0 534
70 1
126 1
255 62
56 1
0 29
23 1
216 1
255 10
223 1
0 535
207 1
255 63
143 1
0 29
14 1
197 1
255 10
215 1
32 1
0 532
90 1
132 1
255 64
177 1
9 1
0 29
137 1
255 10
242 1
24 1
0 531
56 1
255 66
221 1
0 30
31 1
251 1
255 10
124 1
0 531
183 1
255 67
81 1
0 29
24 1
208 1
255 10
215 1
14 1
0 529
88 1
255 68
160 1
2 1
0 28
7 1
193 1
255 10
219 1
37 1
0 527
2 1
0 1
215 1
255 68
185 1
8 1
0 30
112 1
239 1
255 9
53 1
0 526
84 1
149 1
183 1
255 69
237 1
7 1
0 31
16 1
143 1
255 8
157 1
0 524
42 1
104 1
255 73
110 1
0 33
48 1
175 1
255 6
215 1
22 1
0 522
40 1
255 1
247 1
255 72
223 1
8 1
0 34
61 1
255 6
225 1
31 1
0 45
2 1
0 1
31 1
0 474
167 1
255 74
96 1
0 36
208 1
255 6
77 1
0 44
93 1
147 1
184 1
255 1
135 1
8 1
0 471
7 1
168 1
255 71
203 1
168 1
114 1
0 36
7 1
168 1
255 6
181 1
0 43
80 1
255 5
108 1
0 471
156 1
192 1
255 67
215 1
174 1
132 1
47 1
0 1
7 1
0 38
120 1
255 6
215 1
29 1
0 42
207 1
255 5
193 1
9 1
0 469
112 1
255 65
236 1
185 1
153 1
78 1
0 1
9 1
0 42
35 1
255 6
234 1
29 1
0 41
120 1
255 6
204 1
20 1
0 467
48 1
135 1
239 1
255 62
191 1
167 1
100 1
0 1
8 1
0 47
195 1
255 6
104 1
0 40
24 1
247 1
255 6
251 1
32 1
0 467
175 1
255 60
204 1
171 1
120 1
28 1
0 1
5 1
0 49
5 1
162 1
255 6
202 1
6 1
0 39
151 1
255 8
139 1
0 466
88 1
255 59
239 1
215 1
0 1
9 1
0 54
106 1
255 6
212 1
31 1
0 38
56 1
255 9
192 1
14 1
0 465
215 1
255 57
239 1
113 1
51 1
36 1
0 56
7 1
236 1
255 5
245 1
38 1
0 38
183 1
255 9
216 1
18 1
0 464
120 1
255 58
112 1
0 59
4 1
180 1
255 6
247 1
120 1
0 36
3 1
162 1
255 10
62 1
0 463
4 1
162 1
255 57
207 1
0 60
1 1
146 1
255 8
215 1
88 1
0 35
183 1
255 10
161 1
0 22
14 1
0 440
104 1
145 1
255 57
80 1
0 61
78 1
255 10
175 1
48 1
0 32
88 1
255 11
195 1
18 1
0 17
10 1
11 1
45 1
142 1
184 1
175 1
48 1
0 436
54 1
68 1
255 57
135 1
77 1
0 63
219 1
255 11
143 1
16 1
0 30
215 1
255 11
227 1
14 1
0 16
121 1
188 1
206 1
255 5
143 1
6 1
0 434
223 1
251 1
255 56
231 1
8 1
0 63
6 1
143 1
255 12
239 1
112 1
0 28
8 1
182 1
255 12
90 1
0 15
120 1
255 8
215 1
0 434
128 1
255 58
146 1
0 66
56 1
183 1
255 12
199 1
72 1
0 27
215 1
255 12
174 1
2 1
0 11
27 1
50 1
89 1
247 1
255 9
75 1
0 431
47 1
67 1
255 59
235 1
5 1
0 67
88 1
215 1
255 12
167 1
40 1
0 24
128 1
255 13
200 1
21 1
0 7
16 1
47 1
73 1
167 1
228 1
233 1
255 11
146 1
0 431
199 1
255 61
72 1
0 69
120 1
247 1
255 12
135 1
8 1
0 21
32 1
255 14
240 1
16 1
0 3
3 1
42 1
54 1
139 1
232 1
229 1
255 15
180 1
4 1
0 429
104 1
255 61
253 1
108 1
0 70
24 1
151 1
255 12
231 1
104 1
0 20
159 1
255 15
123 1
36 1
51 1
118 1
217 1
227 1
248 1
255 18
236 1
0 429
8 1
231 1
255 62
135 1
0 72
64 1
191 1
255 12
191 1
64 1
0 15
34 1
78 1
112 1
255 16
193 1
225 1
237 1
255 23
96 1
0 428
135 1
255 61
248 1
231 1
8 1
0 74
96 1
223 1
255 12
159 1
32 1
0 9
18 1
70 1
95 1
174 1
255 1
246 1
255 43
159 1
4 1
0 426
40 1
255 62
72 1
52 1
0 77
128 1
255 13
128 1
0 5
60 1
88 1
151 1
255 1
247 1
255 47
191 1
0 427
167 1
255 62
168 1
0 79
147 1
255 13
215 1
88 1
81 1
129 1
219 1
250 1
249 1
255 51
27 1
0 425
80 1
255 63
203 1
23 1
0 78
72 1
199 1
255 14
246 1
255 55
115 1
0 425
207 1
255 63
199 1
0 81
104 1
234 1
255 68
164 1
7 1
0 423
112 1
255 64
72 1
0 82
162 1
255 68
204 1
0 424
45 1
240 1
255 62
159 1
0 83
74 1
253 1
255 68
58 1
0 423
35 1
222 1
255 62
32 1
0 83
50 1
230 1
255 68
137 1
0 424
194 1
255 61
135 1
0 84
14 1
232 1
255 68
175 1
6 1
0 423
96 1
255 61
231 1
13 1
0 84
132 1
255 68
199 1
0 424
45 1
230 1
255 60
227 1
45 1
0 82
50 1
95 1
247 1
255 68
123 1
0 424
27 1
221 1
255 61
67 1
0 82
191 1
255 70
199 1
0 425
167 1
255 61
162 1
0 81
93 1
255 71
77 1
0 423
98 1
145 1
255 62
227 1
27 1
0 80
28 1
231 1
255 70
174 1
0 422
16 1
239 1
255 63
231 1
50 1
0 80
24 1
207 1
255 70
72 1
0 422
143 1
255 65
95 1
0 81
167 1
255 70
125 1
0 421
56 1
255 66
193 1
0 81
70 1
255 70
72 1
0 421
120 1
255 66
226 1
36 1
0 80
30 1
222 1
255 68
240 1
68 1
0 421
44 1
255 66
199 1
0 81
18 1
206 1
255 69
112 1
0 422
189 1
255 65
72 1
0 82
144 1
255 69
199 1
0 421
3 1
150 1
255 63
199 1
159 1
0 83
46 1
252 1
255 68
72 1
0 422
99 1
255 61
183 1
42 1
0 1
6 1
0 83
30 1
213 1
255 68
162 1
0 422
13 1
244 1
255 60
93 1
0 86
32 1
247 1
255 68
198 1
19 1
0 422
179 1
255 60
186 1
0 86
75 1
251 1
255 68
199 1
0 422
1 1
142 1
255 60
236 1
39 1
0 85
19 1
248 1
255 68
72 1
0 424
56 1
155 1
62 1
248 1
255 56
239 1
63 1
0 86
149 1
255 67
234 1
56 1
0 426
47 1
231 1
255 57
121 1
0 86
85 1
249 1
255 67
72 1
0 426
4 1
231 1
255 57
223 1
0 86
60 1
255 67
159 1
0 428
123 1
255 57
96 1
0 87
220 1
255 66
116 1
0 428
58 1
241 1
255 56
167 1
0 87
129 1
255 66
159 1
0 428
42 1
238 1
255 56
190 1
12 1
0 86
87 1
248 1
255 65
32 1
0 429
201 1
255 56
238 1
0 87
88 1
255 65
128 1
0 430
100 1
255 57
215 1
88 1
0 85
215 1
255 64
223 1
0 431
56 1
234 1
255 58
52 1
0 83
34 1
218 1
255 64
96 1
0 431
31 1
241 1
255 58
112 1
1 1
0 83
202 1
255 64
126 1
0 432
165 1
255 58
152 1
142 1
112 1
0 82
98 1
255 64
165 1
0 432
74 1
255 61
207 1
80 1
0 80
40 1
233 1
255 63
223 1
0 432
55 1
215 1
255 62
167 1
40 1
0 78
30 1
224 1
255 63
96 1
0 434
238 1
255 63
97 1
0 78
178 1
255 62
183 1
0 434
12 1
190 1
255 63
137 1
0 78
74 1
255 62
56 1
0 417
20 1
31 1
72 1
0 15
160 1
255 63
203 1
0 5
36 1
0 72
40 1
224 1
255 60
232 1
52 1
0 413
10 1
30 1
39 1
144 1
206 1
222 1
255 1
159 1
32 1
0 13
84 1
255 64
55 1
17 1
60 1
88 1
171 1
255 1
159 1
32 1
0 70
21 1
225 1
255 61
56 1
0 410
28 1
24 1
120 1
207 1
215 1
255 7
128 1
0 13
219 1
255 63
147 1
255 1
239 1
255 5
116 1
0 70
143 1
255 60
151 1
0 405
51 1
84 1
96 1
28 1
93 1
188 1
210 1
242 1
255 11
223 1
15 1
0 10
12 1
180 1
255 71
160 1
0 70
46 1
249 1
255 58
247 1
24 1
0 402
74 1
112 1
194 1
255 1
246 1
255 1
228 1
255 15
221 1
37 1
0 11
143 1
255 71
236 1
11 1
0 69
40 1
224 1
255 58
217 1
33 1
0 399
7 1
28 1
38 1
231 1
255 22
60 1
0 11
51 1
255 72
85 1
0 69
16 1
239 1
255 58
247 1
24 1
0 397
23 1
116 1
201 1
213 1
252 1
255 23
162 1
0 11
6 1
206 1
255 70
254 1
128 1
0 69
143 1
255 59
120 1
0 398
151 1
255 27
215 1
22 1
0 10
10 1
183 1
255 71
178 1
0 68
56 1
255 59
248 1
77 1
0 397
56 1
255 28
228 1
37 1
0 11
123 1
255 72
33 1
0 64
6 1
0 1
40 1
183 1
255 60
120 1
0 397
172 1
255 29
83 1
0 11
24 1
251 1
255 71
99 1
0 60
2 1
0 1
14 1
108 1
165 1
196 1
255 61
215 1
0 398
68 1
255 29
187 1
0 10
80 1
151 1
255 72
138 1
0 1
63 1
0 1
31 1
0 53
7 1
0 1
87 1
157 1
183 1
245 1
255 64
88 1
0 397
63 1
183 1
255 29
215 1
31 1
0 3
2 1
0 1
56 1
125 1
163 1
220 1
255 75
210 1
255 1
199 1
215 1
199 1
72 1
0 47
7 1
0 1
58 1
137 1
175 1
222 1
255 67
175 1
0 397
128 1
255 31
236 1
40 1
0 1
32 1
110 1
154 1
203 1
255 85
167 1
10 1
0 19
2 1
0 21
5 1
0 1
34 1
120 1
168 1
206 1
255 71
48 1
0 396
32 1
255 34
188 1
255 89
210 1
6 1
0 15
1 1
0 1
7 1
93 1
147 1
135 1
8 1
0 15
1 1
4 1
7 1
102 1
162 1
195 1
255 74
147 1
0 397
159 1
255 125
56 1
0 4
6 1
0 9
72 1
132 1
170 1
234 1
255 3
223 1
96 1
0 11
6 1
0 1
75 1
146 1
180 1
235 1
255 77
225 1
18 1
0 395
64 1
255 126
191 1
88 1
185 1
64 1
137 1
171 1
191 1
64 1
36 1
64 1
0 1
50 1
120 1
159 1
215 1
255 8
225 1
0 7
6 1
0 1
52 1
131 1
171 1
219 1
255 81
143 1
0 396
191 1
255 134
225 1
255 1
198 1
255 13
75 1
0 2
4 1
0 1
28 1
115 1
164 1
204 1
255 84
239 1
16 1
0 395
104 1
255 151
128 1
0 1
96 1
159 1
191 1
255 88
112 1
0 395
8 1
231 1
255 152
231 1
255 90
199 1
0 396
135 1
255 244
72 1
0 395
40 1
255 244
167 1
0 396
167 1
255 244
40 1
0 395
55 1
255 244
135 1
0 397
195 1
255 242
236 1
8 1
0 397
134 1
255 243
76 1
0 397
167 1
255 242
231 1
8 1
0 396
80 1
255 243
104 1
0 395
10 1
37 1
207 1
255 242
191 1
0 396
143 1
255 244
64 1
0 395
48 1
255 243
143 1
100 1
0 396
44 1
227 1
255 241
215 1
0 395
19 1
75 1
109 1
177 1
255 241
130 1
77 1
0 393
93 1
153 1
248 1
251 1
254 1
255 241
151 1
0 395
223 1
255 243
215 1
162 1
24 1
0 394
128 1
255 244
80 1
0 395
32 1
255 245
117 1
0 395
159 1
255 245
80 1
0 394
13 1
185 1
255 244
175 1
0 396
159 1
255 244
48 1
0 395
34 1
248 1
255 243
143 1
0 397
168 1
255 52
200 1
255 188
204 1
137 1
16 1
0 397
81 1
255 51
246 1
75 1
236 1
255 186
194 1
72 1
0 399
60 1
239 1
255 51
120 1
96 1
223 1
255 184
210 1
21 1
0 400
16 1
255 51
215 1
0 3
128 1
255 1
207 1
255 182
40 1
0 401
143 1
255 50
88 1
0 4
32 1
20 1
32 1
159 1
255 180
146 1
0 401
64 1
247 1
255 5
251 1
255 42
175 1
0 9
64 1
191 1
255 178
40 1
0 401
52 1
231 1
255 1
253 1
255 1
235 1
151 1
101 1
170 1
255 41
171 1
24 1
0 10
104 1
231 1
255 171
254 1
255 1
237 1
160 1
123 1
0 403
8 1
135 1
108 1
72 1
5 1
0 2
127 1
255 42
247 1
116 1
0 10
8 1
135 1
186 1
135 1
247 1
147 1
255 165
177 1
124 1
85 1
6 1
0 412
73 1
255 43
166 1
0 12
9 1
0 1
19 1
0 1
94 1
255 162
151 1
29 1
0 417
222 1
255 42
249 1
16 1
0 15
60 1
207 1
255 157
233 1
200 1
168 1
75 1
19 1
0 418
156 1
255 43
85 1
0 16
30 1
255 155
252 1
231 1
8 1
21 1
0 421
117 1
255 43
125 1
0 16
10 1
143 1
255 154
83 1
58 1
0 423
55 1
255 43
184 1
0 18
223 1
255 152
195 1
0 426
197 1
255 43
37 1
0 17
88 1
215 1
255 152
47 1
0 425
120 1
247 1
255 42
97 1
0 19
120 1
247 1
213 1
247 1
255 147
167 1
0 427
24 1
151 1
255 41
137 1
0 20
24 1
28 1
24 1
151 1
255 146
40 1
0 429
207 1
255 40
201 1
0 24
64 1
191 1
255 143
128 1
0 430
135 1
255 41
60 1
0 25
96 1
223 1
255 137
238 1
190 1
167 1
84 1
0 431
96 1
255 41
112 1
0 27
128 1
255 134
183 1
108 1
0 1
12 1
0 433
40 1
255 41
155 1
0 28
32 1
159 1
255 132
56 1
0 437
186 1
255 40
230 1
0 30
72 1
199 1
255 127
217 1
152 1
112 1
0 438
123 1
255 41
76 1
0 31
104 1
233 1
255 123
135 1
68 1
0 441
85 1
255 40
254 1
120 1
0 32
155 1
255 120
210 1
193 1
123 1
8 1
0 443
48 1
245 1
255 39
167 1
0 32
48 1
175 1
255 1
200 1
255 111
200 1
145 1
104 1
48 1
153 1
48 1
22 1
12 1
0 445
40 1
225 1
255 40
175 1
13 1
0 32
55 1
0 1
80 1
207 1
255 105
221 1
156 1
117 1
55 1
0 454
209 1
255 40
213 1
12 1
0 36
112 1
242 1
255 99
243 1
165 1
127 1
73 1
0 458
16 1
143 1
255 40
67 1
0 37
173 1
255 96
182 1
135 1
90 1
12 1
0 463
56 1
183 1
255 38
156 1
0 37
56 1
183 1
255 91
206 1
143 1
109 1
40 1
0 469
224 1
255 4
249 1
250 1
220 1
255 30
192 1
40 1
0 38
88 1
215 1
255 85
226 1
156 1
121 1
60 1
0 473
120 1
247 2
248 1
149 1
85 1
56 1
93 1
255 32
135 1
8 1
0 38
120 1
131 1
120 1
247 1
255 79
128 1
78 1
0 478
32 1
70 1
19 1
0 3
28 1
231 1
255 32
223 1
96 1
0 38
1 1
0 1
32 1
159 1
255 75
219 1
199 1
139 1
0 486
24 1
207 1
255 34
191 1
64 1
0 40
64 1
191 1
255 69
227 1
201 1
161 1
62 1
24 1
16 1
0 488
167 1
255 36
159 1
11 1
0 39
70 1
255 68
239 1
16 1
21 1
0 492
64 1
255 36
219 1
0 41
128 1
255 67
112 1
0 494
30 1
222 1
255 36
74 1
0 41
40 1
167 1
255 64
207 1
0 495
18 1
206 1
255 36
183 1
56 1
0 42
72 1
199 1
255 1
206 1
255 60
206 1
24 1
0 495
144 1
255 38
90 1
0 43
52 1
0 1
104 1
231 1
255 58
236 1
22 1
0 495
46 1
252 1
255 37
125 1
0 46
16 1
196 1
255 58
105 1
0 495
30 1
213 1
255 37
184 1
0 46
4 1
170 1
255 58
194 1
5 1
0 494
10 1
201 1
255 38
44 1
0 46
22 1
134 1
255 57
210 1
27 1
0 495
112 1
255 38
108 1
0 42
8 1
54 1
68 1
154 1
248 1
234 1
255 57
248 1
31 1
0 495
23 1
151 1
255 37
141 1
0 39
42 1
65 1
123 1
231 1
236 1
248 1
255 61
130 1
0 497
56 1
183 1
255 35
209 1
0 35
31 1
62 1
100 1
201 1
238 1
243 1
255 65
203 1
16 1
0 498
161 1
255 35
63 1
0 30
19 1
58 1
87 1
173 1
242 1
239 1
255 69
217 1
29 1
0 498
120 1
255 35
112 1
0 29
24 1
247 1
235 1
255 74
56 1
0 499
32 1
177 1
255 33
155 1
0 29
151 1
255 76
160 1
0 500
131 1
255 33
231 1
0 25
42 1
96 1
135 1
207 1
255 77
205 1
64 1
0 500
96 1
223 1
255 32
80 1
0 20
22 1
85 1
123 1
186 1
255 83
159 1
32 1
0 499
8 1
135 1
255 30
254 1
120 1
0 17
71 1
108 1
162 1
249 1
255 1
254 1
255 85
247 1
90 1
0 500
40 1
167 1
255 29
171 1
0 16
56 1
255 1
253 1
255 90
129 1
0 502
232 1
255 29
183 1
56 1
0 14
183 1
255 92
205 1
0 502
165 1
255 31
130 1
0 12
82 1
255 94
54 1
0 501
126 1
255 31
170 1
0 12
13 1
224 1
255 92
251 1
112 1
0 501
66 1
255 31
239 1
6 1
0 11
88 1
255 95
207 1
52 1
0 500
211 1
255 31
93 1
0 11
67 1
242 1
255 17
240 1
255 77
80 1
0 500
153 1
255 31
139 1
1 1
0 10
41 1
249 1
255 13
252 1
225 1
232 1
128 1
46 1
120 1
251 1
255 75
170 1
0 500
114 1
255 31
184 1
0 12
190 1
255 10
229 1
233 1
155 1
60 1
43 1
10 1
0 2
24 1
255 76
235 1
29 1
0 499
46 1
255 32
37 1
0 10
88 1
255 8
224 1
183 1
81 1
46 1
23 1
0 7
56 1
183 1
255 74
236 1
56 1
0 500
190 1
255 31
110 1
0 10
215 1
255 8
88 1
0 13
220 1
255 74
72 1
0 500
139 1
255 31
151 1
0 9
120 1
255 9
108 1
0 13
163 1
255 73
211 1
0 501
95 1
255 3
249 1
255 27
205 1
0 8
32 1
247 1
255 9
150 1
0 13
125 1
255 74
63 1
0 501
64 1
191 1
118 1
84 1
64 1
211 1
255 26
60 1
0 7
40 1
221 1
255 9
225 1
0 13
54 1
255 74
149 1
0 506
188 1
255 26
123 1
0 7
13 1
224 1
255 10
76 1
0 13
198 1
255 73
181 1
10 1
0 505
85 1
255 26
162 1
0 8
124 1
255 9
254 1
120 1
0 12
2 1
150 1
255 73
199 1
0 506
32 1
225 1
255 26
215 1
88 1
0 6
39 1
241 1
255 9
171 1
0 13
105 1
255 73
72 1
0 506
25 1
207 1
255 28
126 1
0 5
37 1
224 1
255 10
22 1
0 12
26 1
255 69
219 1
145 1
104 1
52 1
0 509
112 1
239 1
255 26
168 1
5 1
0 5
202 1
255 9
128 1
0 14
183 1
255 67
159 1
0 514
16 1
231 1
255 25
215 1
0 6
98 1
255 8
215 1
0 14
2 1
143 1
255 66
247 1
32 1
0 514
23 1
203 1
255 26
68 1
0 5
47 1
235 1
255 7
135 1
0 15
92 1
255 66
225 1
45 1
0 515
168 1
255 26
141 1
0 5
30 1
224 1
255 7
221 1
0 16
234 1
255 65
247 1
32 1
0 515
69 1
255 26
177 1
4 1
0 5
178 1
255 8
68 1
0 14
124 1
255 65
250 1
120 1
0 516
19 1
216 1
255 25
231 1
0 6
74 1
255 7
251 1
104 1
0 14
24 1
242 1
255 63
183 1
20 1
0 517
18 1
199 1
255 26
90 1
0 5
46 1
229 1
255 7
159 1
0 14
32 1
215 1
255 63
56 1
0 519
139 1
255 26
154 1
4 1
0 4
21 1
226 1
255 8
20 1
0 14
195 1
255 62
143 1
0 520
32 1
255 26
187 1
0 6
151 1
255 8
80 1
0 13
64 1
96 1
255 61
239 1
16 1
0 520
25 1
167 1
255 25
250 1
27 1
0 5
60 1
250 1
255 7
109 1
0 9
47 1
87 1
135 1
220 1
255 1
250 1
255 61
112 1
0 523
72 1
199 1
255 3
245 1
255 20
183 1
56 1
0 4
43 1
224 1
255 7
180 1
0 5
31 1
80 1
118 1
194 1
255 1
248 1
255 64
207 1
0 526
104 1
231 1
127 1
72 1
104 1
231 1
212 1
231 1
255 18
151 1
24 1
0 2
10 1
217 1
255 8
38 1
14 1
71 1
103 1
174 1
255 1
249 1
255 68
80 1
0 527
4 1
0 3
8 1
30 1
8 1
135 1
255 18
247 1
120 1
0 2
116 1
255 7
252 1
153 1
248 1
251 1
254 1
255 70
175 1
0 536
48 1
175 1
126 1
175 1
255 16
207 1
80 1
45 1
240 1
255 78
210 1
159 1
54 1
33 1
0 540
80 1
207 1
255 16
210 1
255 79
72 1
0 545
112 1
239 1
255 93
159 1
0 547
24 1
151 1
255 92
32 1
0 549
56 1
183 1
255 85
253 1
255 1
201 1
130 1
92 1
0 551
13 1
239 1
255 82
223 1
145 1
101 1
52 1
0 555
175 1
255 81
143 1
0 558
2 1
144 1
255 80
239 1
16 1
0 560
118 1
255 78
211 1
112 1
0 561
75 1
223 1
255 7
236 1
255 65
231 1
160 1
119 1
63 1
0 564
8 1
135 1
255 1
165 1
255 1
199 1
170 1
106 1
8 1
135 1
255 61
180 1
131 1
85 1
6 1
0 569
25 1
0 1
35 1
5 1
6 1
0 3
40 1
167 1
255 55
195 1
141 1
99 1
29 1
0 583
72 1
199 1
255 49
215 1
152 1
112 1
49 1
0 589
104 1
231 1
255 33
253 1
255 1
236 1
255 3
248 1
231 2
255 1
237 1
160 1
123 1
68 1
0 594
16 1
143 1
255 31
175 1
113 1
81 1
16 1
143 1
240 1
154 1
68 1
49 1
16 1
90 1
12 1
0 599
48 1
175 1
255 23
253 1
255 1
195 1
126 1
88 1
31 1
0 5
21 1
0 607
80 1
207 1
255 17
252 1
255 1
218 1
140 1
97 1
50 1
0 619
120 1
247 1
255 15
112 1
67 1
0 624
24 1
151 1
255 11
206 1
183 1
123 1
0 628
56 1
183 1
255 5
219 1
180 1
143 1
51 1
6 1
10 1
0 631
88 1
215 1
187 1
155 1
77 1
0 1
11 1
0 637
12 1
0 59331
